svg-color/freeotp.svg

<?xml version="1.0" encoding="UTF-8" standalone="no"?>
<svg
   xmlns:dc="http://purl.org/dc/elements/1.1/"
   xmlns:cc="http://creativecommons.org/ns#"
   xmlns:rdf="http://www.w3.org/1999/02/22-rdf-syntax-ns#"
   xmlns:svg="http://www.w3.org/2000/svg"
   xmlns="http://www.w3.org/2000/svg"
   xmlns:xlink="http://www.w3.org/1999/xlink"
   xmlns:sodipodi="http://sodipodi.sourceforge.net/DTD/sodipodi-0.dtd"
   xmlns:inkscape="http://www.inkscape.org/namespaces/inkscape"
   version="1.1"
   viewBox="0 0 32 32"
   id="svg15"
   sodipodi:docname="freeotp.rounded.svg"
   inkscape:version="0.92+devel unknown">
  <metadata
     id="metadata19">
    <rdf:RDF>
      <cc:Work
         rdf:about="">
        <dc:format>image/svg+xml</dc:format>
        <dc:type
           rdf:resource="http://purl.org/dc/dcmitype/StillImage" />
        <dc:title />
      </cc:Work>
    </rdf:RDF>
  </metadata>
  <sodipodi:namedview
     pagecolor="#ffffff"
     bordercolor="#666666"
     inkscape:document-rotation="0"
     borderopacity="1"
     objecttolerance="10"
     gridtolerance="10"
     guidetolerance="10"
     inkscape:pageopacity="0"
     inkscape:pageshadow="2"
     inkscape:window-width="1366"
     inkscape:window-height="704"
     id="namedview17"
     showgrid="true"
     inkscape:zoom="8"
     inkscape:cx="17.997948"
     inkscape:cy="30.446958"
     inkscape:window-x="0"
     inkscape:window-y="27"
     inkscape:window-maximized="1"
     inkscape:current-layer="g13">
    <inkscape:grid
       type="xygrid"
       id="grid4286" />
  </sodipodi:namedview>
  <defs
     id="defs7">
    <linearGradient
       id="a"
       x1="16"
       x2="16"
       y1="392"
       y2="392"
       gradientUnits="userSpaceOnUse">
      <stop
         stop-color="#24fbff"
         offset="0"
         id="stop2" />
      <stop
         stop-color="#1850ef"
         offset="0.80000001"
         id="stop4" />
    </linearGradient>
    <linearGradient
       inkscape:collect="always"
       xlink:href="#a"
       id="linearGradient4284"
       x1="16"
       y1="352"
       x2="16"
       y2="384"
       gradientUnits="userSpaceOnUse" />
  </defs>
  <g
     transform="translate(0,-352)"
     id="g13">
    <path
       style="fill:#21eafe;fill-opacity:1;paint-order:markers fill stroke"
       d="M 3.015625 0 C 1.344477 0 3.734137e-17 1.344477 0 3.015625 L 0 28.984375 C 0 30.655523 1.344477 32 3.015625 32 L 28.984375 32 C 30.655523 32 32 30.655523 32 28.984375 L 32 3.015625 C 32 1.344477 30.655523 3.734137e-17 28.984375 0 L 3.015625 0 z M 16 4.4003906 L 26 10.177734 L 26 21.726562 L 16 27.503906 L 6 21.726562 L 6 10.177734 L 16 4.4003906 z M 16 6.7109375 L 9 10.755859 L 16 14.800781 L 16.001953 14.800781 L 23.019531 10.765625 L 16 6.7109375 z M 23.980469 11.320312 L 24 11.355469 L 24 11.332031 L 23.980469 11.320312 z M 8 12.488281 L 8 20.578125 L 15 24.621094 L 15 16.53125 L 8 12.488281 z M 24 12.509766 L 17 16.533203 L 17 24.621094 L 24 20.578125 L 24 12.509766 z "
       transform="translate(0,352)"
       id="rect9" />
  </g>
</svg>

<?xml version="1.0" encoding="UTF-8"?>
<svg version="1.1" viewBox="0 0 32 32" xmlns="http://www.w3.org/2000/svg" xmlns:xlink="http://www.w3.org/1999/xlink">
 <g transform="translate(0,-352)">
  <path transform="translate(0,352)" d="m3.016 0c-1.671 0-3.016 1.344-3.016 3.016v25.97c0 1.671 1.344 3.016 3.016 3.016h25.97c1.671 0 3.016-1.344 3.016-3.016v-25.97c0-1.671-1.344-3.016-3.016-3.016h-25.97zm12.98 4.4l10 5.777v11.55l-10 5.777-10-5.777v-11.55l10-5.777zm0 2.311l-7 4.045 7 4.045h0.001953l7.018-4.035-7.02-4.055zm7.98 4.609l0.01953 0.03516v-0.02344l-0.01953-0.01172zm-15.98 1.168v8.09l7 4.043v-8.09l-7-4.043zm16 0.02148l-7 4.023v8.088l7-4.043v-8.068z" fill="#21eafe" style="paint-order:markers fill stroke"/>
 </g>
</svg>
